public/avatar/shoe/159.svg

<svg xmlns:xlink="http://www.w3.org/1999/xlink" height="38.3" width="36.05" xmlns="http://www.w3.org/2000/svg"><use height="20.55" transform="translate(10.85 9.05)" width="18.9" xlink:href="#a"/><defs><g id="a" fill-rule="evenodd"><path d="M.15-5.7q4.55.3 5.25 1.05.55.65.55 2.75Q5.95.15 5.5.6q-.4.55-.05.95.45.5.2.85-.55.85.05 2.6 0 2.35-1.25 6-.85.15-1.6-3.2l-.6 1.7q-.75 1.9-1.9 3.05-3.1 1.6-7.9 2.2l-5.25-.35q-.6-.6 1.2-3.9 1.7-3.15 2.95-4.25l2.9-2.75V2.15q.9-.6.9-.9-1.05-5.2-.3-6.45.55-.9 5.3-.5" transform="translate(12.95 5.8)"/><path d="m.15-4.65 4.45.75.3 2.2q0 1.25-.2 1.6-.5.65-.5 1.2 0 .55.45 1.05-.3.5-.3.95l.15 1 .15.9-.55 3.35-.5-1.3q-.15-.4-.75-.4-.75 0-1 .7-1.1 3.25-2.15 4.3Q-2.9 13-7 13.6l-4.8.15q.25-1.1 1.55-3.45 1.4-2.45 2.35-3.25l1.8-1.95 1.3-1.05.25-1-.05-.55q.8-.5.8-1.25L-3.9.4l-.45-4.1.05-.8 4.45-.15" fill="#fff" transform="translate(12.95 5.8)"/><path d="m2.75-3.85 1.25.5q.65.5-1.15 6.7l-.95 3.4q-1.2 3.6-2.65 4.9-2.25 2-11 2.1l4.85-2.85q2-1 3.9-3.1 1.95-2 1.45-2.55l-1-.45q-.55-.45.65-1.25.65-.4.3-2.95-.4-4.05-.2-4.2l4.55-.25" fill="#d7d7d9" transform="translate(12.95 5.8)"/><path d="M3.1-.25q.3-.4.1-1.5-.25-1.1-.05-1.35.3-.3 1 .25.7.65.7 1.25l-.1 1.5q-.5.65-.5 1.2 0 .55.45 1.05-.3.5-.3.95l.2 1 .1.9q0 1.1-.6 3.35l-.45-1.3q-.2-.4-.8-.4-.7 0-.95.7-1.4 3.55-2.15 4.3Q-2.85 13-6.9 13.6l-4.25.15q5.55-.35 9.5-2.25 2.35-1.2 3.3-6 .3-1.25-.55-1.7l-.7-.65q2.6-.8 2.1-1.4Q-.35 1.25-.25.9 2.7.15 3.1-.25" fill="#a4a4a7" transform="translate(12.95 5.8)"/><path d="m1.75 6.9 2.9-1.6q0 1.1-.55 3.05l-.45-1.3q-.2-.3-.8-.4-.7 0-.95.75Q.5 11-.25 11.75q-2.6 1.3-6.65 1.9l-4.85.15 4.2-.65q4.55-.5 6.7-1.65.8-.45 2.6-4.6" fill="#262b26" transform="translate(12.95 5.8)"/><path d="m4.2 5.4.45-.1L4 8.4l.2-3" fill="#a4a4a7" transform="translate(12.95 5.8)"/></g></defs></svg>

<?xml version="1.0" encoding="UTF-8" standalone="no"?>
<svg xmlns:xlink="http://www.w3.org/1999/xlink" height="38.3px" width="36.05px" xmlns="http://www.w3.org/2000/svg">
  <g transform="matrix(1.0, 0.0, 0.0, 1.0, 23.8, 14.85)">
    <use height="20.55" transform="matrix(1.0, 0.0, 0.0, 1.0, -12.95, -5.8)" width="18.9" xlink:href="#shape0"/>
  </g>
  <defs>
    <g id="shape0" transform="matrix(1.0, 0.0, 0.0, 1.0, 12.95, 5.8)">
      <path d="M0.15 -5.7 Q4.7 -5.4 5.4 -4.65 5.95 -4.0 5.95 -1.9 5.95 0.15 5.5 0.6 5.1 1.15 5.45 1.55 5.9 2.05 5.65 2.4 5.1 3.25 5.7 5.0 5.7 7.35 4.45 11.0 3.6 11.15 2.85 7.8 L2.25 9.5 Q1.5 11.4 0.35 12.55 -2.75 14.15 -7.55 14.75 L-12.8 14.4 Q-13.4 13.8 -11.6 10.5 -9.9 7.35 -8.65 6.25 L-5.75 3.5 -5.75 2.15 Q-4.85 1.55 -4.85 1.25 -5.9 -3.95 -5.15 -5.2 -4.6 -6.1 0.15 -5.7" fill="#000000" fill-rule="evenodd" stroke="none"/>
      <path d="M0.15 -4.65 L4.6 -3.9 4.9 -1.7 Q4.9 -0.45 4.7 -0.1 4.2 0.55 4.2 1.1 4.2 1.65 4.65 2.15 4.35 2.65 4.35 3.1 L4.5 4.1 4.65 5.0 4.1 8.35 3.6 7.05 Q3.45 6.65 2.85 6.65 2.1 6.65 1.85 7.35 0.75 10.6 -0.3 11.65 -2.9 13.0 -7.0 13.6 L-11.8 13.75 Q-11.55 12.65 -10.25 10.3 -8.85 7.85 -7.9 7.05 L-6.1 5.1 -4.8 4.05 -4.55 3.05 -4.6 2.5 Q-3.8 2.0 -3.8 1.25 L-3.9 0.4 -4.35 -3.7 -4.3 -4.5 0.15 -4.65" fill="#ffffff" fill-rule="evenodd" stroke="none"/>
      <path d="M2.75 -3.85 L4.0 -3.35 Q4.65 -2.85 2.85 3.35 L1.9 6.75 Q0.7 10.35 -0.75 11.65 -3.0 13.65 -11.75 13.75 L-6.9 10.9 Q-4.9 9.9 -3.0 7.8 -1.05 5.8 -1.55 5.25 L-2.55 4.8 Q-3.1 4.35 -1.9 3.55 -1.25 3.15 -1.6 0.6 -2.0 -3.45 -1.8 -3.6 L2.75 -3.85" fill="#d7d7d9" fill-rule="evenodd" stroke="none"/>
      <path d="M3.1 -0.25 Q3.4 -0.65 3.2 -1.75 2.95 -2.85 3.15 -3.1 3.45 -3.4 4.15 -2.85 4.85 -2.2 4.85 -1.6 L4.75 -0.1 Q4.25 0.55 4.25 1.1 4.25 1.65 4.7 2.15 4.4 2.65 4.4 3.1 L4.6 4.1 4.7 5.0 Q4.7 6.1 4.1 8.35 L3.65 7.05 Q3.45 6.65 2.85 6.65 2.15 6.65 1.9 7.35 0.5 10.9 -0.25 11.65 -2.85 13.0 -6.9 13.6 L-11.15 13.75 Q-5.6 13.4 -1.65 11.5 0.7 10.3 1.65 5.5 1.95 4.25 1.1 3.8 L0.4 3.15 Q3.0 2.35 2.5 1.75 -0.35 1.25 -0.25 0.9 2.7 0.15 3.1 -0.25" fill="#a4a4a7" fill-rule="evenodd" stroke="none"/>
      <path d="M1.75 6.9 L4.65 5.3 Q4.65 6.4 4.1 8.35 L3.65 7.05 Q3.45 6.75 2.85 6.65 2.15 6.65 1.9 7.4 0.5 11.0 -0.25 11.75 -2.85 13.05 -6.9 13.65 L-11.75 13.8 -7.55 13.15 Q-3.0 12.65 -0.85 11.5 -0.05 11.05 1.75 6.9" fill="#262b26" fill-rule="evenodd" stroke="none"/>
      <path d="M4.2 5.4 L4.65 5.3 4.0 8.4 4.2 5.4" fill="#a4a4a7" fill-rule="evenodd" stroke="none"/>
    </g>
  </defs>
</svg>
